packages/ffe-icons/icons/open/300/md/variable_add.svg

<svg xmlns="http://www.w3.org/2000/svg" height="24" viewBox="0 -960 960 960" width="24"><path d="M176.155-300.001q-15.365 0-25.759-10.351-10.395-10.35-10.395-25.65v-288.004q0-15.3 10.395-25.646 10.394-10.347 25.759-10.347h607.69q15.365 0 25.759 10.395 10.395 10.394 10.395 25.759v33.846q0 12.749-8.629 21.374Q802.741-560 789.986-560q-12.756 0-21.371-8.625Q760-577.25 760-589.999V-600H200v240h330.001q12.749 0 21.374 8.629Q560-342.743 560-329.987q0 12.755-8.625 21.37-8.625 8.616-21.374 8.616H176.155ZM200-360v-240 240Zm560 59.999h-90.001q-12.749 0-21.374-8.629Q640-317.259 640-330.014q0-12.756 8.625-21.371Q657.25-360 669.999-360H760v-90.001q0-12.749 8.629-21.374Q777.257-480 790.013-480q12.755 0 21.37 8.625 8.616 8.625 8.616 21.374V-360h90q12.75 0 21.375 8.629 8.625 8.628 8.625 21.384 0 12.755-8.625 21.37-8.625 8.616-21.375 8.616h-90v90q0 12.75-8.629 21.375t-21.384 8.625q-12.756 0-21.371-8.625Q760-197.251 760-210.001v-90Z"/></svg>

<svg xmlns="http://www.w3.org/2000/svg" height="24" viewBox="0 -960 960 960" width="24"><path d="M176.16-300q-15.37 0-25.76-10.35Q140-320.7 140-336v-288.01q0-15.3 10.4-25.64Q160.79-660 176.16-660h607.68q15.37 0 25.76 10.4 10.4 10.39 10.4 25.76V-590q0 12.75-8.63 21.38-8.63 8.62-21.38 8.62-12.76 0-21.37-8.62Q760-577.25 760-590v-10H200v240h330q12.75 0 21.38 8.63 8.62 8.63 8.62 21.38 0 12.76-8.62 21.37Q542.75-300 530-300H176.16ZM200-360v-240 240Zm560 60h-90q-12.75 0-21.38-8.63-8.62-8.63-8.62-21.38 0-12.76 8.62-21.37Q657.25-360 670-360h90v-90q0-12.75 8.63-21.38 8.63-8.62 21.38-8.62 12.76 0 21.37 8.62Q820-462.75 820-450v90h90q12.75 0 21.37 8.63 8.63 8.63 8.63 21.38 0 12.76-8.63 21.37Q922.75-300 910-300h-90v90q0 12.75-8.63 21.37-8.63 8.63-21.38 8.63-12.76 0-21.37-8.63Q760-197.25 760-210v-90Z"/></svg>
